icons/1_Primary/WEDOS.svg

<svg width="1024" height="1024" viewBox="0 0 1024 1024" fill="none" xmlns="http://www.w3.org/2000/svg">
<g clip-path="url(#clip0_2_3909)">
<path d="M512 1024C794.77 1024 1024 794.77 1024 512C1024 229.23 794.77 0 512 0C229.23 0 0 229.23 0 512C0 794.77 229.23 1024 512 1024Z" fill="#54688C"/>
<path d="M766 456.44C754.66 402.83 725.27 353.21 683.31 317.9C645.557 285.727 599.36 265.072 550.21 258.39C499.04 251.47 445.82 259.76 399.52 282.82C347.52 308.52 304.4 352.08 279.85 404.71C261.205 444.452 253.256 488.373 256.79 532.13C260.66 583.47 281.04 633.29 313.79 672.99C347.51 714.099 393.026 743.878 444.2 758.31C499.49 773.83 559.98 770.65 613.14 748.79C660.14 729.79 701.01 696.41 729.7 654.66C714.72 655.122 699.906 657.937 685.8 663H685.64C675.23 666.21 661.58 673.21 656.51 675.89C655.825 676.215 655.157 676.575 654.51 676.97C620.265 705.346 578.187 722.613 533.881 726.472C489.575 730.331 445.145 720.598 406.51 698.57C356.61 670.2 318.51 621.46 304.14 565.77C291.488 517.445 296.286 466.206 317.69 421.07C340.69 372.4 382.46 333.07 432.31 312.86C476.592 294.781 525.583 291.735 571.764 304.189C617.945 316.642 658.762 343.908 687.95 381.8C711.484 412.141 726.345 448.299 730.95 486.42C732.5 496.47 726.87 505.61 721.22 513.42C710.59 527.08 695.75 538.42 678.48 541.74C667.71 543.55 658.85 535.74 651.88 528.63C663.95 511.38 676.82 494.52 686.54 475.77C693.67 462.36 695.46 446.66 693.37 431.77C691.75 423.36 687.03 414.29 678.37 411.53C669.37 409.14 661.09 414.84 654.17 419.84C635.34 434.5 620.23 453.44 607.33 473.37C600.17 485.13 593.18 497.47 590.68 511.16C589.32 517.44 591.21 523.74 592.04 529.96C580.04 541.07 568.72 552.79 556.27 563.37C550.13 568.56 543.84 574.09 536.12 576.75C533.679 577.523 531.046 577.42 528.673 576.46C526.3 575.5 524.336 573.742 523.12 571.49C518.53 563.96 522.49 555.1 524.93 547.57C535.63 519.28 550.38 492.74 565.41 466.57C573.93 451.8 583.41 437.57 591.07 422.34C594.24 415.07 585.74 410.34 580.07 408.52C572.52 406.52 563.67 401.25 556.27 406.35C546.54 412.88 539.43 422.42 531.77 431.13C513.77 453.52 493.77 474.13 473.14 494.13C452.63 513.58 431.95 532.99 409.14 549.7C399.2 556.25 389.48 563.17 379.2 569.15C374.54 572.28 368.57 568.87 367.2 563.87C364 553.26 369.1 542.64 371.64 532.45C372.82 529.35 372.45 525.3 375.3 523.12C402.83 500.33 430.59 477.6 455.18 451.57C463.73 442.28 472.06 432.49 477.52 421C480.42 414.87 482.27 407.73 480.42 401C478.2 394.93 471.57 392.5 465.85 390.9C454.85 387.9 442.85 385.09 431.85 389.37C416.29 395.3 403.39 406.28 391.03 417.18C373.68 433.349 357.39 450.618 342.26 468.88C317.55 498.68 308.83 540.64 318.62 577.94C324.48 598.94 341.41 615.89 361.32 624.06C370.79 628.06 381.67 628.83 391.32 624.99C405.23 619.57 416.54 609.48 427.6 599.78C443.3 584.78 458.6 569.29 474.33 554.32C473.71 569.9 470.88 585.51 472.73 601.1C474.33 615.73 484.15 629.4 497.85 635.02C507.69 639.17 518.69 636.09 527.91 631.75C543.14 624.22 556.35 613.3 569.33 602.48C585.28 588.61 601.28 574.83 617.54 561.35C625.54 566.77 633.8 572.35 643.4 574.46C663.18 578.21 683.4 572.79 700.99 563.62C725.19 552.53 746.42 533.98 758.51 510.06C766.71 493.65 770.65 474.45 766 456.44Z" fill="white"/>
</g>
<defs>
<clipPath id="clip0_2_3909">
<rect width="1024" height="1024" fill="white"/>
</clipPath>
</defs>
</svg>

<svg xmlns="http://www.w3.org/2000/svg" viewBox="0 0 1024 1024">
   <circle cx="512" cy="512" r="512" style="fill:#104594"/>
   <path d="M766 456.44c-11.34-53.61-40.73-103.23-82.69-138.54a259 259 0 0 0-133.1-59.51c-51.17-6.92-104.39 1.37-150.69 24.43-52 25.7-95.12 69.26-119.67 121.89a252.2 252.2 0 0 0-23.06 127.42c3.87 51.34 24.25 101.16 57 140.86a259.92 259.92 0 0 0 130.41 85.32c55.29 15.52 115.78 12.34 168.94-9.52 47-19 87.87-52.38 116.56-94.13a143 143 0 0 0-43.9 8.34h-.16c-10.41 3.21-24.06 10.21-29.13 12.89a21.71 21.71 0 0 0-2 1.08 218.82 218.82 0 0 1-248 21.6c-49.9-28.37-88-77.11-102.37-132.8a212.25 212.25 0 0 1 13.55-144.7c23-48.67 64.77-88 114.62-108.21a218.46 218.46 0 0 1 255.64 68.94 212.23 212.23 0 0 1 43 104.62c1.55 10.05-4.08 19.19-9.73 27-10.63 13.66-25.47 25-42.74 28.32-10.77 1.81-19.63-6-26.6-13.11 12.07-17.25 24.94-34.11 34.66-52.86 7.13-13.41 8.92-29.11 6.83-44-1.62-8.41-6.34-17.48-15-20.24-9-2.39-17.28 3.31-24.2 8.31-18.83 14.66-33.94 33.6-46.84 53.53-7.16 11.76-14.15 24.1-16.65 37.79-1.36 6.28.53 12.58 1.36 18.8-12 11.11-23.32 22.83-35.77 33.41-6.14 5.19-12.43 10.72-20.15 13.38a11 11 0 0 1-13-5.26c-4.59-7.53-.63-16.39 1.81-23.92 10.7-28.29 25.45-54.83 40.48-81 8.52-14.77 18-29 25.66-44.23 3.17-7.27-5.33-12-11-13.82-7.55-2-16.4-7.27-23.8-2.17-9.73 6.53-16.84 16.07-24.5 24.78-18 22.39-38 43-58.63 63-20.51 19.45-41.19 38.86-64 55.57-9.94 6.55-19.66 13.47-29.94 19.45-4.66 3.13-10.63-.28-12-5.28-3.2-10.61 1.9-21.23 4.44-31.42 1.18-3.1.81-7.15 3.66-9.33 27.53-22.79 55.29-45.52 79.88-71.55 8.55-9.29 16.88-19.08 22.34-30.57 2.9-6.13 4.75-13.27 2.9-20-2.22-6.07-8.85-8.5-14.57-10.1-11-3-23-5.81-34-1.53-15.56 5.93-28.46 16.91-40.82 27.81a552.52 552.52 0 0 0-48.77 51.7c-24.71 29.8-33.43 71.76-23.64 109.06 5.86 21 22.79 37.95 42.7 46.12 9.47 4 20.35 4.77 30 .93 13.91-5.42 25.22-15.51 36.28-25.21 15.7-15 31-30.49 46.73-45.46-.62 15.58-3.45 31.19-1.6 46.78 1.6 14.63 11.42 28.3 25.12 33.92 9.84 4.15 20.84 1.07 30.06-3.27 15.23-7.53 28.44-18.45 41.42-29.27 15.95-13.87 31.95-27.65 48.21-41.13 8 5.42 16.26 11 25.86 13.11 19.78 3.75 40-1.67 57.59-10.84 24.2-11.09 45.43-29.64 57.52-53.56 8.2-16.41 12.14-35.61 7.49-53.62z" style="fill:#fff"/>
</svg>
